X: 23328
T: Legless In Lisburn
R: reel
M: 4/4
K: Amajor
|e2|Bccc BAAA|eccc f2ef|eccc acec|Acec B2a2|
Bccc BAAA|eccc f2ef|eaae faec|BeeG A2||
ed|Bccc aBce|cddd fafd|eccc acec|Acec Baga|
Bccc aBce|cddffafd|eaae faec|BeeG A2||
e2|Bccc eAAA|dAeA fafd|eccc aBce|feac B2a2|
Bccc eAAA|dAeA fafd|eaae faec|BeeG A2||
ed|caae aecA|daaf afdB|eaae face|feac B2a2|
Bccc eAAA|dAeA fafd|eaae faec|BeeG A2||

